src/pos-icons/account-remove-outline.svg

<svg height="24" viewBox="0 0 24 24" width="24" xmlns="http://www.w3.org/2000/svg"><path d="m1.46 8.88 1.42-1.42 2.12 2.13 2.12-2.13 1.42 1.42-2.13 2.12 2.13 2.12-1.42 1.42-2.12-2.13-2.12 2.13-1.42-1.42 2.13-2.12zm13.54-4.88a4 4 0 0 1 4 4 4 4 0 0 1 -4 4 4 4 0 0 1 -4-4 4 4 0 0 1 4-4m0 1.9a2.1 2.1 0 0 0 -2.1 2.1 2.1 2.1 0 0 0 2.1 2.1c1.16 0 2.1-.94 2.1-2.1s-.94-2.1-2.1-2.1m0 7.1c2.67 0 8 1.33 8 4v3h-16v-3c0-2.67 5.33-4 8-4m0 1.9c-3 0-6.1 1.46-6.1 2.1v1.1h12.2v-1.1c0-.64-3.13-2.1-6.1-2.1z"/></svg>

<?xml version="1.0" encoding="UTF-8"?><!DOCTYPE svg PUBLIC "-//W3C//DTD SVG 1.1//EN" "http://www.w3.org/Graphics/SVG/1.1/DTD/svg11.dtd"><svg xmlns="http://www.w3.org/2000/svg" xmlns:xlink="http://www.w3.org/1999/xlink" version="1.1" id="mdi-account-remove-outline" width="24" height="24" viewBox="0 0 24 24"><path d="M1.46,8.88L2.88,7.46L5,9.59L7.12,7.46L8.54,8.88L6.41,11L8.54,13.12L7.12,14.54L5,12.41L2.88,14.54L1.46,13.12L3.59,11L1.46,8.88M15,4A4,4 0 0,1 19,8A4,4 0 0,1 15,12A4,4 0 0,1 11,8A4,4 0 0,1 15,4M15,5.9A2.1,2.1 0 0,0 12.9,8A2.1,2.1 0 0,0 15,10.1C16.16,10.1 17.1,9.16 17.1,8C17.1,6.84 16.16,5.9 15,5.9M15,13C17.67,13 23,14.33 23,17V20H7V17C7,14.33 12.33,13 15,13M15,14.9C12,14.9 8.9,16.36 8.9,17V18.1H21.1V17C21.1,16.36 17.97,14.9 15,14.9Z" /></svg>
